; G-Code generated by Simplify3D(R) Version 4.1.2
; Apr 7, 2020 at 12:51:09 PM
; Settings Summary
;   processName,Process1
;   applyToModels,surgical_mask_strap,surgical_mask_strap(2)
;   profileName,gradual_heat_test (modified)
;   profileVersion,2015-05-01 08:00:00
;   baseProfile,Printrbot Simple Metal(3)
;   printMaterial,
;   printQuality,
;   printExtruders,
;   extruderName,Primary Extruder
;   extruderToolheadNumber,0
;   extruderDiameter,0.4
;   extruderAutoWidth,0
;   extruderWidth,0.6
;   extrusionMultiplier,0.96
;   extruderUseRetract,1
;   extruderRetractionDistance,1
;   extruderExtraRestartDistance,0
;   extruderRetractionZLift,0
;   extruderRetractionSpeed,1800
;   extruderUseCoasting,0
;   extruderCoastingDistance,0.2
;   extruderUseWipe,0
;   extruderWipeDistance,5
;   primaryExtruder,0
;   layerHeight,0.25
;   topSolidLayers,2
;   bottomSolidLayers,2
;   perimeterOutlines,4
;   printPerimetersInsideOut,1
;   startPointOption,2
;   startPointOriginX,0
;   startPointOriginY,0
;   sequentialIslands,0
;   spiralVaseMode,0
;   firstLayerHeightPercentage,120
;   firstLayerWidthPercentage,70
;   firstLayerUnderspeed,0.5
;   useRaft,0
;   raftExtruder,0
;   raftTopLayers,3
;   raftBaseLayers,2
;   raftOffset,0
;   raftSeparationDistance,0.3
;   raftTopInfill,100
;   aboveRaftSpeedMultiplier,0.3
;   useSkirt,0
;   skirtExtruder,0
;   skirtLayers,1
;   skirtOutlines,2
;   skirtOffset,4
;   usePrimePillar,0
;   primePillarExtruder,999
;   primePillarWidth,12
;   primePillarLocation,7
;   primePillarSpeedMultiplier,1
;   useOozeShield,0
;   oozeShieldExtruder,999
;   oozeShieldOffset,2
;   oozeShieldOutlines,1
;   oozeShieldSidewallShape,1
;   oozeShieldSidewallAngle,30
;   oozeShieldSpeedMultiplier,1
;   infillExtruder,0
;   internalInfillPattern,Rectilinear
;   externalInfillPattern,Rectilinear
;   infillPercentage,0
;   outlineOverlapPercentage,15
;   infillExtrusionWidthPercentage,100
;   minInfillLength,5
;   infillLayerInterval,1
;   internalInfillAngles,45,-45
;   overlapInternalInfillAngles,0
;   externalInfillAngles,45,-45
;   generateSupport,0
;   supportExtruder,0
;   supportInfillPercentage,20
;   supportExtraInflation,0
;   supportBaseLayers,0
;   denseSupportExtruder,0
;   denseSupportLayers,2
;   denseSupportInfillPercentage,40
;   supportLayerInterval,1
;   supportHorizontalPartOffset,0.3
;   supportUpperSeparationLayers,1
;   supportLowerSeparationLayers,0
;   supportType,0
;   supportGridSpacing,4
;   maxOverhangAngle,45
;   supportAngles,0
;   temperatureName,Primary Extruder,Heated Bed
;   temperatureNumber,0,1
;   temperatureSetpointCount,1,1
;   temperatureSetpointLayers,1,1
;   temperatureSetpointTemperatures,210,0
;   temperatureStabilizeAtStartup,1,1
;   temperatureHeatedBed,0,1
;   fanLayers,1
;   fanSpeeds,100
;   blipFanToFullPower,1
;   adjustSpeedForCooling,1
;   minSpeedLayerTime,15
;   minCoolingSpeedSlowdown,20
;   increaseFanForCooling,0
;   minFanLayerTime,45
;   maxCoolingFanSpeed,100
;   increaseFanForBridging,0
;   bridgingFanSpeed,100
;   use5D,1
;   relativeEdistances,0
;   allowEaxisZeroing,1
;   independentExtruderAxes,0
;   includeM10123,0
;   stickySupport,1
;   applyToolheadOffsets,0
;   gcodeXoffset,0
;   gcodeYoffset,0
;   gcodeZoffset,0
;   overrideMachineDefinition,1
;   machineTypeOverride,0
;   strokeXoverride,250
;   strokeYoverride,150
;   strokeZoverride,150
;   originOffsetXoverride,0
;   originOffsetYoverride,0
;   originOffsetZoverride,0
;   homeXdirOverride,-1
;   homeYdirOverride,-1
;   homeZdirOverride,-1
;   flipXoverride,1
;   flipYoverride,-1
;   flipZoverride,1
;   toolheadOffsets,0,0|0,0|0,0|0,0|0,0|0,0
;   overrideFirmwareConfiguration,1
;   firmwareTypeOverride,RepRap (Marlin/Repetier/Sprinter)
;   GPXconfigOverride,r2
;   baudRateOverride,250000
;   overridePrinterModels,1
;   printerModelsOverride
;   startingGcode,G28 ; home all axes,G29 ; probe Z
;   layerChangeGcode,
;   retractionGcode,
;   toolChangeGcode,
;   endingGcode,M104 S0 T0 ; turn off extruder,M140 S0 T1 ; turn off bed,G28 X0 ; home X axis,M84 ; disable motors
;   exportFileFormat,gcode
;   celebration,0
;   celebrationSong,Random Song
;   postProcessing,
;   defaultSpeed,6000
;   outlineUnderspeed,0.6
;   solidInfillUnderspeed,0.8
;   supportUnderspeed,0.8
;   rapidXYspeed,6000
;   rapidZspeed,1002
;   minBridgingArea,50
;   bridgingExtraInflation,2
;   bridgingExtrusionMultiplier,0.95
;   bridgingSpeedMultiplier,0.8
;   useFixedBridgingAngle,0
;   fixedBridgingAngle,0
;   applyBridgingToPerimeters,0
;   filamentDiameters,1.75|1.75|1.75|1.75|1.75|1.75
;   filamentPricesPerKg,46|46|46|46|46|46
;   filamentDensities,1.25|1.25|1.25|1.25|1.25|1.25
;   useMinPrintHeight,0
;   minPrintHeight,0
;   useMaxPrintHeight,1
;   maxPrintHeight,1.2
;   useDiaphragm,0
;   diaphragmLayerInterval,20
;   robustSlicing,1
;   mergeAllIntoSolid,0
;   onlyRetractWhenCrossingOutline,1
;   retractBetweenLayers,1
;   useRetractionMinTravel,0
;   retractionMinTravel,3
;   retractWhileWiping,0
;   onlyWipeOutlines,1
;   avoidCrossingOutline,0
;   maxMovementDetourFactor,3
;   toolChangeRetractionDistance,12
;   toolChangeExtraRestartDistance,-0.5
;   toolChangeRetractionSpeed,600
;   externalThinWallType,0
;   internalThinWallType,2
;   thinWallAllowedOverlapPercentage,10
;   singleExtrusionMinLength,1
;   singleExtrusionMinPrintingWidthPercentage,50
;   singleExtrusionMaxPrintingWidthPercentage,200
;   singleExtrusionEndpointExtension,0.2
;   horizontalSizeCompensation,0
G90
M82
M106 S255
M140 S0
M104 S210 T0
M109 S210 T0
G28 ; home all axes
G29 ; probe Z
; process Process1
; layer 1, Z = 0.300
T0
G92 E0.0000
G1 E-1.0000 F1800
; feature inner perimeter
; tool H0.300 W0.420
G1 Z0.300 F1002
G1 X46.100 Y18.991 F6000
G1 E0.0000 F1800
G92 E0.0000
G1 X46.180 Y18.850 E0.0082 F2400
G1 X49.166 Y14.873 E0.2583
G1 X49.518 Y14.598 E0.2807
G1 X49.763 Y14.563 E0.2932
G1 X49.992 Y14.656 E0.3056
G1 X50.144 Y14.851 E0.3181
G1 X50.179 Y15.096 E0.3305
G1 X50.011 Y15.511 E0.3530
G1 X47.135 Y19.328 E0.5934
G1 X47.494 Y21.882 E0.7231
G1 X61.298 Y19.942 E1.4241
G1 X60.922 Y17.266 E1.5600
G1 X60.920 Y17.034 E1.5717
G1 X60.954 Y16.903 E1.5785
G1 X61.068 Y16.701 E1.5901
G1 X64.019 Y12.786 E1.8367
G1 X64.372 Y12.510 E1.8592
G1 X64.617 Y12.476 E1.8716
G1 X64.846 Y12.568 E1.8841
G1 X64.999 Y12.764 E1.8965
G1 X65.033 Y13.009 E1.9090
G1 X64.865 Y13.424 E1.9315
G1 X61.989 Y17.241 E2.1719
G1 X62.348 Y19.795 E2.3015
G1 X76.152 Y17.855 E3.0026
G1 X75.776 Y15.179 E3.1385
G1 X75.774 Y14.947 E3.1501
G1 X75.808 Y14.816 E3.1569
G1 X75.922 Y14.614 E3.1686
G1 X78.873 Y10.698 E3.4152
G1 X79.226 Y10.423 E3.4377
G1 X79.471 Y10.388 E3.4501
G1 X79.700 Y10.481 E3.4626
G1 X79.853 Y10.676 E3.4750
G1 X79.887 Y10.921 E3.4875
G1 X79.719 Y11.336 E3.5100
G1 X76.843 Y15.153 E3.7503
G1 X77.202 Y17.707 E3.8800
G1 X103.381 Y14.028 E5.2095
G1 X104.156 Y13.758 E5.2508
G1 X104.881 Y13.117 E5.2994
G1 X105.243 Y12.380 E5.3407
G1 X105.487 Y11.470 E5.3881
G1 X144.513 Y11.470 E7.3507
G1 X144.757 Y12.380 E7.3981
G1 X145.119 Y13.117 E7.4394
G1 X145.844 Y13.758 E7.4880
G1 X146.619 Y14.028 E7.5293
G1 X172.798 Y17.707 E8.8588
G1 X173.157 Y15.153 E8.9885
G1 X170.281 Y11.336 E9.2288
G1 X170.113 Y10.921 E9.2514
G1 X170.147 Y10.676 E9.2638
G1 X170.300 Y10.481 E9.2762
G1 X170.529 Y10.388 E9.2887
G1 X170.774 Y10.423 E9.3011
G1 X171.127 Y10.698 E9.3237
G1 X174.078 Y14.614 E9.5702
G1 X174.192 Y14.816 E9.5819
G1 X174.226 Y14.947 E9.5887
G1 X174.224 Y15.179 E9.6004
G1 X173.848 Y17.855 E9.7362
G1 X187.652 Y19.795 E10.4373
G1 X188.011 Y17.241 E10.5670
G1 X185.135 Y13.424 E10.8073
G1 X184.967 Y13.009 E10.8298
G1 X185.001 Y12.764 E10.8423
G1 X185.154 Y12.568 E10.8547
G1 X185.383 Y12.476 E10.8672
G1 X185.628 Y12.510 E10.8796
G1 X185.981 Y12.786 E10.9021
G1 X188.932 Y16.701 E11.1487
G1 X189.046 Y16.903 E11.1604
G1 X189.080 Y17.034 E11.1672
G1 X189.078 Y17.266 E11.1788
G1 X188.702 Y19.942 E11.3147
G1 X202.506 Y21.882 E12.0158
G1 X202.865 Y19.328 E12.1455
G1 X199.989 Y15.511 E12.3858
G1 X199.821 Y15.096 E12.4083
G1 X199.856 Y14.851 E12.4208
G1 X200.008 Y14.656 E12.4332
G1 X200.237 Y14.563 E12.4457
G1 X200.482 Y14.598 E12.4581
G1 X200.835 Y14.874 E12.4806
G1 X203.786 Y18.789 E12.7272
G1 X203.900 Y18.991 E12.7389
G1 X203.934 Y19.122 E12.7456
G1 X203.932 Y19.354 E12.7573
G1 X201.600 Y35.950 E13.6001
G1 X201.537 Y36.173 E13.6118
G1 X201.469 Y36.290 E13.6186
G1 X201.303 Y36.453 E13.6303
G1 X197.388 Y39.403 E13.8768
G1 X196.973 Y39.571 E13.8993
G1 X196.728 Y39.536 E13.9118
G1 X196.533 Y39.384 E13.9242
G1 X196.440 Y39.154 E13.9367
G1 X196.474 Y38.909 E13.9491
G1 X196.750 Y38.556 E13.9716
G1 X200.567 Y35.680 E14.2120
G1 X200.926 Y33.126 E14.3417
G1 X187.122 Y31.186 E15.0427
G1 X186.746 Y33.862 E15.1786
G1 X186.684 Y34.086 E15.1903
G1 X186.615 Y34.202 E15.1971
G1 X186.449 Y34.365 E15.2087
G1 X182.534 Y37.315 E15.4553
G1 X182.119 Y37.483 E15.4778
G1 X181.874 Y37.449 E15.4903
G1 X181.679 Y37.296 E15.5027
G1 X181.586 Y37.067 E15.5152
G1 X181.620 Y36.822 E15.5276
G1 X181.896 Y36.469 E15.5501
G1 X185.713 Y33.593 E15.7905
G1 X186.072 Y31.039 E15.9202
G1 X172.268 Y29.099 E16.6212
G1 X171.892 Y31.774 E16.7571
G1 X171.829 Y31.998 E16.7688
G1 X171.761 Y32.115 E16.7756
G1 X171.595 Y32.277 E16.7872
G1 X167.680 Y35.228 E17.0338
G1 X167.265 Y35.396 E17.0563
G1 X167.020 Y35.361 E17.0687
G1 X166.825 Y35.209 E17.0812
G1 X166.732 Y34.979 E17.0936
G1 X166.766 Y34.734 E17.1061
G1 X167.042 Y34.381 E17.1286
G1 X170.859 Y31.505 E17.3690
G1 X171.218 Y28.951 E17.4986
G1 X148.335 Y25.735 E18.6607
G1 X149.084 Y28.530 E18.8062
G1 X100.916 Y28.530 E21.2286
G1 X101.665 Y25.735 E21.3741
G1 X78.782 Y28.951 E22.5361
G1 X79.141 Y31.505 E22.6658
G1 X82.958 Y34.381 E22.9062
G1 X83.234 Y34.734 E22.9287
G1 X83.268 Y34.979 E22.9411
G1 X83.175 Y35.209 E22.9536
G1 X82.980 Y35.361 E22.9660
G1 X82.735 Y35.396 E22.9785
G1 X82.320 Y35.228 E23.0010
G1 X78.405 Y32.277 E23.2475
G1 X78.239 Y32.115 E23.2592
G1 X78.171 Y31.998 E23.2660
G1 X78.108 Y31.774 E23.2777
G1 X77.732 Y29.099 E23.4136
G1 X63.928 Y31.039 E24.1146
G1 X64.287 Y33.593 E24.2443
G1 X68.104 Y36.469 E24.4847
G1 X68.380 Y36.822 E24.5072
G1 X68.414 Y37.067 E24.5196
G1 X68.321 Y37.296 E24.5321
G1 X68.126 Y37.449 E24.5445
G1 X67.881 Y37.483 E24.5570
G1 X67.466 Y37.315 E24.5795
G1 X63.551 Y34.365 E24.8260
G1 X63.385 Y34.202 E24.8377
G1 X63.317 Y34.086 E24.8445
G1 X63.254 Y33.862 E24.8562
G1 X62.878 Y31.186 E24.9921
G1 X49.074 Y33.126 E25.6931
G1 X49.433 Y35.680 E25.8228
G1 X53.250 Y38.556 E26.0631
G1 X53.526 Y38.909 E26.0857
G1 X53.560 Y39.154 E26.0981
G1 X53.467 Y39.384 E26.1106
G1 X53.272 Y39.536 E26.1230
G1 X53.027 Y39.571 E26.1354
G1 X52.612 Y39.403 E26.1580
G1 X48.697 Y36.453 E26.4045
G1 X48.531 Y36.290 E26.4162
G1 X48.462 Y36.173 E26.4230
G1 X48.400 Y35.950 E26.4347
G1 X46.068 Y19.354 E27.2775
G1 X46.066 Y19.122 E27.2891
G1 X46.100 Y18.991 E27.2959
G1 X45.707 Y18.832 F6000
G92 E0.0000
G1 X45.828 Y18.619 E0.0123 F2400
G1 X48.863 Y14.576 E0.2666
G1 X49.348 Y14.198 E0.2975
G1 X49.816 Y14.132 E0.3212
G1 X50.254 Y14.309 E0.3450
G1 X50.545 Y14.681 E0.3688
G1 X50.611 Y15.149 E0.3925
G1 X50.380 Y15.720 E0.4235
G1 X47.575 Y19.442 E0.6579
G1 X47.851 Y21.408 E0.7577
G1 X60.824 Y19.585 E1.4165
G1 X60.502 Y17.297 E1.5327
G1 X60.500 Y16.982 E1.5485
G1 X60.561 Y16.745 E1.5608
G1 X60.716 Y16.471 E1.5767
G1 X63.717 Y12.489 E1.8274
G1 X64.202 Y12.110 E1.8584
G1 X64.670 Y12.044 E1.8821
G1 X65.108 Y12.221 E1.9059
G1 X65.399 Y12.594 E1.9297
G1 X65.465 Y13.062 E1.9534
G1 X65.234 Y13.632 E1.9844
G1 X62.429 Y17.355 E2.2188
G1 X62.705 Y19.320 E2.3186
G1 X75.678 Y17.497 E2.9774
G1 X75.356 Y15.210 E3.0935
G1 X75.354 Y14.895 E3.1094
G1 X75.415 Y14.657 E3.1217
G1 X75.570 Y14.383 E3.1376
G1 X78.570 Y10.401 E3.3883
G1 X79.056 Y10.022 E3.4192
G1 X79.524 Y9.957 E3.4430
G1 X79.962 Y10.134 E3.4668
G1 X80.253 Y10.506 E3.4905
G1 X80.319 Y10.974 E3.5143
G1 X80.088 Y11.545 E3.5453
G1 X77.283 Y15.267 E3.7796
G1 X77.559 Y17.233 E3.8795
G1 X103.281 Y13.618 E5.1857
G1 X103.940 Y13.389 E5.2208
G1 X104.541 Y12.857 E5.2611
G1 X104.848 Y12.232 E5.2962
G1 X105.165 Y11.050 E5.3577
G1 X144.835 Y11.050 E7.3527
G1 X145.152 Y12.232 E7.4142
G1 X145.459 Y12.857 E7.4493
G1 X146.060 Y13.389 E7.4896
G1 X146.719 Y13.618 E7.5247
G1 X172.441 Y17.233 E8.8309
G1 X172.717 Y15.267 E8.9308
G1 X169.912 Y11.545 E9.1651
G1 X169.681 Y10.974 E9.1961
G1 X169.747 Y10.506 E9.2199
G1 X170.038 Y10.134 E9.2436
G1 X170.476 Y9.957 E9.2674
G1 X170.944 Y10.022 E9.2912
G1 X171.429 Y10.401 E9.3221
G1 X174.430 Y14.383 E9.5728
G1 X174.585 Y14.657 E9.5887
G1 X174.646 Y14.895 E9.6010
G1 X174.644 Y15.210 E9.6169
G1 X174.322 Y17.497 E9.7330
G1 X187.295 Y19.320 E10.3918
G1 X187.571 Y17.355 E10.4916
G1 X184.766 Y13.632 E10.7260
G1 X184.535 Y13.062 E10.7570
G1 X184.601 Y12.594 E10.7807
G1 X184.892 Y12.221 E10.8045
G1 X185.330 Y12.044 E10.8283
G1 X185.798 Y12.110 E10.8520
G1 X186.283 Y12.489 E10.8830
G1 X189.284 Y16.471 E11.1337
G1 X189.439 Y16.745 E11.1496
G1 X189.500 Y16.983 E11.1619
G1 X189.498 Y17.297 E11.1778
G1 X189.176 Y19.585 E11.2939
G1 X202.149 Y21.408 E11.9527
G1 X202.425 Y19.442 E12.0525
G1 X199.620 Y15.720 E12.2869
G1 X199.389 Y15.149 E12.3179
G1 X199.455 Y14.681 E12.3416
G1 X199.746 Y14.309 E12.3654
G1 X200.184 Y14.132 E12.3892
G1 X200.652 Y14.198 E12.4129
G1 X201.137 Y14.577 E12.4439
G1 X204.138 Y18.558 E12.6946
G1 X204.293 Y18.832 E12.7104
G1 X204.354 Y19.070 E12.7228
G1 X204.352 Y19.385 E12.7386
G1 X202.012 Y36.035 E13.5842
G1 X201.927 Y36.339 E13.6000
G1 X201.803 Y36.551 E13.6124
G1 X201.578 Y36.771 E13.6282
G1 X197.597 Y39.772 E13.8789
G1 X197.026 Y40.002 E13.9099
G1 X196.558 Y39.937 E13.9337
G1 X196.185 Y39.646 E13.9574
G1 X196.008 Y39.207 E13.9812
G1 X196.074 Y38.739 E14.0050
G1 X196.453 Y38.254 E14.0359
G1 X200.175 Y35.449 E14.2703
G1 X200.452 Y33.484 E14.3701
G1 X187.479 Y31.661 E15.0289
G1 X187.158 Y33.948 E15.1451
G1 X187.073 Y34.251 E15.1609
G1 X186.949 Y34.463 E15.1733
G1 X186.724 Y34.684 E15.1891
G1 X182.743 Y37.684 E15.4398
G1 X182.172 Y37.915 E15.4708
G1 X181.704 Y37.849 E15.4946
G1 X181.331 Y37.558 E15.5183
G1 X181.154 Y37.120 E15.5421
G1 X181.220 Y36.652 E15.5658
G1 X181.599 Y36.167 E15.5968
G1 X185.321 Y33.362 E15.8312
G1 X185.598 Y31.396 E15.9310
G1 X172.625 Y29.573 E16.5898
G1 X172.304 Y31.860 E16.7060
G1 X172.219 Y32.164 E16.7218
G1 X172.095 Y32.375 E16.7341
G1 X171.870 Y32.596 E16.7500
G1 X167.889 Y35.596 E17.0007
G1 X167.318 Y35.827 E17.0317
G1 X166.850 Y35.761 E17.0554
G1 X166.477 Y35.470 E17.0792
G1 X166.300 Y35.032 E17.1030
G1 X166.366 Y34.564 E17.1267
G1 X166.745 Y34.079 E17.1577
G1 X170.467 Y31.274 E17.3921
G1 X170.744 Y29.309 E17.4919
G1 X148.905 Y26.239 E18.6009
G1 X149.632 Y28.950 E18.7420
G1 X100.368 Y28.950 E21.2194
G1 X101.095 Y26.239 E21.3606
G1 X79.256 Y29.309 E22.4696
G1 X79.533 Y31.274 E22.5694
G1 X83.255 Y34.079 E22.8038
G1 X83.634 Y34.564 E22.8348
G1 X83.700 Y35.032 E22.8585
G1 X83.523 Y35.470 E22.8823
G1 X83.150 Y35.761 E22.9061
G1 X82.682 Y35.827 E22.9298
G1 X82.111 Y35.596 E22.9608
G1 X78.130 Y32.596 E23.2115
G1 X77.905 Y32.375 E23.2273
G1 X77.781 Y32.164 E23.2397
G1 X77.696 Y31.860 E23.2555
G1 X77.375 Y29.573 E23.3717
G1 X64.402 Y31.396 E24.0305
G1 X64.679 Y33.362 E24.1303
G1 X68.401 Y36.167 E24.3647
G1 X68.780 Y36.652 E24.3956
G1 X68.846 Y37.120 E24.4194
G1 X68.669 Y37.558 E24.4432
G1 X68.296 Y37.849 E24.4669
G1 X67.828 Y37.915 E24.4907
G1 X67.257 Y37.684 E24.5217
G1 X63.276 Y34.684 E24.7724
G1 X63.051 Y34.463 E24.7882
G1 X62.927 Y34.251 E24.8006
G1 X62.842 Y33.948 E24.8164
G1 X62.521 Y31.661 E24.9326
G1 X49.548 Y33.484 E25.5913
