; Note: This *might* work with your 3D printer, and *might* produce good results See `readme.md` for details.
; Otherwise, let this serve as an example of how you need to segment your gcode for the program to work.
; ctrl-f for my "AUTHOR'S NOTE's" for unnecessary commentary on where the splits occur.


; G-Code generated by Simplify3D(R) Version 4.1.2
; Mar 31, 2020 at 7:58:59 PM
; Settings Summary
;   processName,Process1
;   applyToModels,surgical_mask_strap,surgical_mask_strap(2)
;   profileName,gradual_heat_test (modified)
;   profileVersion,2015-05-01 08:00:00
;   baseProfile,Printrbot Simple Metal(3)
;   printMaterial,
;   printQuality,
;   printExtruders,
;   extruderName,Primary Extruder
;   extruderToolheadNumber,0
;   extruderDiameter,0.4
;   extruderAutoWidth,0
;   extruderWidth,0.6
;   extrusionMultiplier,0.96
;   extruderUseRetract,1
;   extruderRetractionDistance,1
;   extruderExtraRestartDistance,0
;   extruderRetractionZLift,0
;   extruderRetractionSpeed,1800
;   extruderUseCoasting,0
;   extruderCoastingDistance,0.2
;   extruderUseWipe,0
;   extruderWipeDistance,5
;   primaryExtruder,0
;   layerHeight,0.3
;   topSolidLayers,2
;   bottomSolidLayers,2
;   perimeterOutlines,2
;   printPerimetersInsideOut,1
;   startPointOption,2
;   startPointOriginX,0
;   startPointOriginY,0
;   sequentialIslands,0
;   spiralVaseMode,0
;   firstLayerHeightPercentage,100
;   firstLayerWidthPercentage,70
;   firstLayerUnderspeed,0.5
;   useRaft,0
;   raftExtruder,0
;   raftTopLayers,3
;   raftBaseLayers,2
;   raftOffset,0
;   raftSeparationDistance,0.3
;   raftTopInfill,100
;   aboveRaftSpeedMultiplier,0.3
;   useSkirt,0
;   skirtExtruder,0
;   skirtLayers,1
;   skirtOutlines,2
;   skirtOffset,4
;   usePrimePillar,0
;   primePillarExtruder,999
;   primePillarWidth,12
;   primePillarLocation,7
;   primePillarSpeedMultiplier,1
;   useOozeShield,0
;   oozeShieldExtruder,999
;   oozeShieldOffset,2
;   oozeShieldOutlines,1
;   oozeShieldSidewallShape,1
;   oozeShieldSidewallAngle,30
;   oozeShieldSpeedMultiplier,1
;   infillExtruder,0
;   internalInfillPattern,Rectilinear
;   externalInfillPattern,Rectilinear
;   infillPercentage,0
;   outlineOverlapPercentage,15
;   infillExtrusionWidthPercentage,100
;   minInfillLength,5
;   infillLayerInterval,1
;   internalInfillAngles,45,-45
;   overlapInternalInfillAngles,0
;   externalInfillAngles,45,-45
;   generateSupport,0
;   supportExtruder,0
;   supportInfillPercentage,20
;   supportExtraInflation,0
;   supportBaseLayers,0
;   denseSupportExtruder,0
;   denseSupportLayers,2
;   denseSupportInfillPercentage,40
;   supportLayerInterval,1
;   supportHorizontalPartOffset,0.3
;   supportUpperSeparationLayers,1
;   supportLowerSeparationLayers,0
;   supportType,0
;   supportGridSpacing,4
;   maxOverhangAngle,45
;   supportAngles,0
;   temperatureName,Primary Extruder,Heated Bed
;   temperatureNumber,0,1
;   temperatureSetpointCount,1,1
;   temperatureSetpointLayers,1,1
;   temperatureSetpointTemperatures,210,0
;   temperatureStabilizeAtStartup,1,1
;   temperatureHeatedBed,0,1
;   fanLayers,1
;   fanSpeeds,100
;   blipFanToFullPower,1
;   adjustSpeedForCooling,1
;   minSpeedLayerTime,15
;   minCoolingSpeedSlowdown,20
;   increaseFanForCooling,0
;   minFanLayerTime,45
;   maxCoolingFanSpeed,100
;   increaseFanForBridging,0
;   bridgingFanSpeed,100
;   use5D,1
;   relativeEdistances,0
;   allowEaxisZeroing,1
;   independentExtruderAxes,0
;   includeM10123,0
;   stickySupport,1
;   applyToolheadOffsets,0
;   gcodeXoffset,0
;   gcodeYoffset,0
;   gcodeZoffset,0
;   overrideMachineDefinition,1
;   machineTypeOverride,0
;   strokeXoverride,250
;   strokeYoverride,150
;   strokeZoverride,150
;   originOffsetXoverride,0
;   originOffsetYoverride,0
;   originOffsetZoverride,0
;   homeXdirOverride,-1
;   homeYdirOverride,-1
;   homeZdirOverride,-1
;   flipXoverride,1
;   flipYoverride,-1
;   flipZoverride,1
;   toolheadOffsets,0,0|0,0|0,0|0,0|0,0|0,0
;   overrideFirmwareConfiguration,1
;   firmwareTypeOverride,RepRap (Marlin/Repetier/Sprinter)
;   GPXconfigOverride,r2
;   baudRateOverride,250000
;   overridePrinterModels,1
;   printerModelsOverride
;   startingGcode,G28 ; home all axes,G29 ; probe Z
;   layerChangeGcode,
;   retractionGcode,
;   toolChangeGcode,
;   endingGcode,M104 S0 T0 ; turn off extruder,M140 S0 T1 ; turn off bed,G28 X0 ; home X axis,M84 ; disable motors
;   exportFileFormat,gcode
;   celebration,0
;   celebrationSong,Random Song
;   postProcessing,
;   defaultSpeed,6000
;   outlineUnderspeed,0.6
;   solidInfillUnderspeed,0.8
;   supportUnderspeed,0.8
;   rapidXYspeed,6000
;   rapidZspeed,1002
;   minBridgingArea,50
;   bridgingExtraInflation,2
;   bridgingExtrusionMultiplier,0.95
;   bridgingSpeedMultiplier,0.8
;   useFixedBridgingAngle,0
;   fixedBridgingAngle,0
;   applyBridgingToPerimeters,0
;   filamentDiameters,1.75|1.75|1.75|1.75|1.75|1.75
;   filamentPricesPerKg,46|46|46|46|46|46
;   filamentDensities,1.25|1.25|1.25|1.25|1.25|1.25
;   useMinPrintHeight,0
;   minPrintHeight,0
;   useMaxPrintHeight,1
;   maxPrintHeight,1.2
;   useDiaphragm,0
;   diaphragmLayerInterval,20
;   robustSlicing,1
;   mergeAllIntoSolid,0
;   onlyRetractWhenCrossingOutline,1
;   retractBetweenLayers,1
;   useRetractionMinTravel,0
;   retractionMinTravel,3
;   retractWhileWiping,0
;   onlyWipeOutlines,1
;   avoidCrossingOutline,0
;   maxMovementDetourFactor,3
;   toolChangeRetractionDistance,12
;   toolChangeExtraRestartDistance,-0.5
;   toolChangeRetractionSpeed,600
;   externalThinWallType,0
;   internalThinWallType,2
;   thinWallAllowedOverlapPercentage,10
;   singleExtrusionMinLength,1
;   singleExtrusionMinPrintingWidthPercentage,50
;   singleExtrusionMaxPrintingWidthPercentage,200
;   singleExtrusionEndpointExtension,0.2
;   horizontalSizeCompensation,0
G90
M82
M106 S255
M140 S0
M104 S210 T0
M109 S210 T0
G28 ; home all axes
G29 ; probe Z
; process Process1
; layer 1, Z = 0.300
T0
G92 E0.0000
G1 E-1.0000 F1800
; feature inner perimeter
; tool H0.300 W0.420
G1 Z0.300 F1002
G1 X45.634 Y13.797 F6000
G1 E0.0000 F1800
G92 E0.0000
G1 X45.830 Y13.450 E0.0200 F2400
G1 X50.716 Y6.967 E0.4283
G1 X51.333 Y6.484 E0.4677
G1 X52.024 Y6.387 E0.5028
G1 X52.671 Y6.649 E0.5379
G1 X53.101 Y7.198 E0.5729
G1 X53.198 Y7.889 E0.6080
G1 X52.904 Y8.616 E0.6474
G1 X51.299 Y10.746 E0.7816
G1 X51.001 Y11.558 E0.8251
G1 X51.228 Y12.494 E0.8735
G1 X51.937 Y13.146 E0.9219
G1 X52.791 Y13.279 E0.9654
G1 X60.004 Y12.266 E1.3317
G1 X65.570 Y4.879 E1.7968
G1 X66.187 Y4.397 E1.8362
G1 X66.878 Y4.300 E1.8713
G1 X67.525 Y4.561 E1.9064
G1 X67.955 Y5.111 E1.9415
G1 X68.052 Y5.802 E1.9766
G1 X67.758 Y6.528 E2.0160
G1 X66.153 Y8.658 E2.1501
G1 X65.855 Y9.471 E2.1936
G1 X66.082 Y10.406 E2.2420
G1 X66.791 Y11.058 E2.2904
G1 X67.645 Y11.192 E2.3340
G1 X74.858 Y10.178 E2.7002
G1 X80.424 Y2.791 E3.1654
G1 X81.041 Y2.309 E3.2048
G1 X81.732 Y2.212 E3.2398
G1 X82.379 Y2.473 E3.2749
G1 X82.809 Y3.023 E3.3100
G1 X82.906 Y3.714 E3.3451
G1 X82.612 Y4.440 E3.3845
G1 X81.007 Y6.571 E3.5186
G1 X80.709 Y7.383 E3.5621
G1 X80.936 Y8.319 E3.6106
G1 X81.645 Y8.971 E3.6590
G1 X82.499 Y9.104 E3.7025
G1 X102.691 Y6.266 E4.7279
G1 X103.249 Y6.069 E4.7576
G1 X103.732 Y5.625 E4.7906
G1 X103.976 Y5.086 E4.8204
G1 X104.149 Y4.333 E4.8593
G1 X104.442 Y3.724 E4.8932
G1 X104.913 Y3.349 E4.9235
G1 X105.571 Y3.199 E4.9575
G1 X144.429 Y3.199 E6.9116
G1 X145.087 Y3.349 E6.9456
G1 X145.558 Y3.724 E6.9759
G1 X145.851 Y4.333 E7.0098
G1 X146.024 Y5.086 E7.0487
G1 X146.268 Y5.625 E7.0784
G1 X146.751 Y6.069 E7.1114
G1 X147.309 Y6.266 E7.1412
G1 X167.501 Y9.104 E8.1666
G1 X168.355 Y8.971 E8.2101
G1 X169.064 Y8.319 E8.2585
G1 X169.291 Y7.383 E8.3069
G1 X168.993 Y6.571 E8.3504
G1 X167.388 Y4.440 E8.4846
G1 X167.094 Y3.714 E8.5240
G1 X167.191 Y3.023 E8.5591
G1 X167.621 Y2.473 E8.5942
G1 X168.268 Y2.212 E8.6292
G1 X168.959 Y2.309 E8.6643
G1 X169.576 Y2.791 E8.7037
G1 X175.142 Y10.178 E9.1689
G1 X182.355 Y11.192 E9.5351
G1 X183.209 Y11.058 E9.5786
G1 X183.918 Y10.406 E9.6271
G1 X184.145 Y9.471 E9.6755
G1 X183.847 Y8.658 E9.7190
G1 X182.242 Y6.528 E9.8531
G1 X181.948 Y5.802 E9.8925
G1 X182.045 Y5.111 E9.9276
G1 X182.475 Y4.561 E9.9627
G1 X183.122 Y4.300 E9.9978
G1 X183.813 Y4.397 E10.0329
G1 X184.430 Y4.879 E10.0723
G1 X189.996 Y12.266 E10.5374
G1 X197.209 Y13.279 E10.9037
G1 X198.063 Y13.146 E10.9472
G1 X198.772 Y12.494 E10.9956
G1 X198.999 Y11.558 E11.0440
G1 X198.701 Y10.746 E11.0875
G1 X197.096 Y8.616 E11.2217
G1 X196.802 Y7.889 E11.2611
G1 X196.899 Y7.198 E11.2961
G1 X197.329 Y6.649 E11.3312
G1 X197.976 Y6.387 E11.3663
G1 X198.667 Y6.484 E11.4014
G1 X199.284 Y6.967 E11.4408
G1 X204.170 Y13.450 E11.8491
G1 X204.366 Y13.797 E11.8691
G1 X204.455 Y14.141 E11.8870
G1 X204.451 Y14.539 E11.9070
G1 X202.744 Y26.691 E12.5241
G1 X202.637 Y27.074 E12.5441
G1 X202.457 Y27.381 E12.5620
G1 X202.173 Y27.660 E12.5820
G1 X195.689 Y32.546 E12.9903
G1 X194.963 Y32.839 E13.0297
G1 X194.272 Y32.742 E13.0648
G1 X193.722 Y32.312 E13.0999
G1 X193.461 Y31.666 E13.1349
G1 X193.558 Y30.975 E13.1700
G1 X194.040 Y30.357 E13.2094
G1 X196.170 Y28.752 E13.3436
G1 X196.680 Y28.053 E13.3871
G1 X196.720 Y27.091 E13.4355
G1 X196.219 Y26.269 E13.4839
G1 X195.434 Y25.905 E13.5274
G1 X188.222 Y24.892 E13.8937
G1 X180.835 Y30.458 E14.3588
G1 X180.109 Y30.751 E14.3982
G1 X179.418 Y30.654 E14.4333
G1 X178.868 Y30.225 E14.4684
G1 X178.607 Y29.578 E14.5035
G1 X178.704 Y28.887 E14.5386
G1 X179.186 Y28.270 E14.5780
G1 X181.316 Y26.664 E14.7121
G1 X181.826 Y25.966 E14.7556
G1 X181.866 Y25.004 E14.8040
G1 X181.365 Y24.182 E14.8525
G1 X180.580 Y23.818 E14.8960
G1 X173.368 Y22.804 E15.2622
G1 X165.981 Y28.370 E15.7274
G1 X165.255 Y28.664 E15.7668
G1 X164.564 Y28.567 E15.8019
G1 X164.014 Y28.137 E15.8369
G1 X163.753 Y27.490 E15.8720
G1 X163.850 Y26.800 E15.9071
G1 X164.332 Y26.182 E15.9465
G1 X166.462 Y24.577 E16.0807
G1 X166.972 Y23.878 E16.1242
G1 X167.012 Y22.916 E16.1726
G1 X166.511 Y22.094 E16.2210
G1 X165.726 Y21.730 E16.2645
G1 X150.824 Y19.636 E17.0213
G1 X150.222 Y19.675 E17.0516
G1 X149.623 Y19.984 E17.0855
G1 X148.906 Y20.889 E17.1436
G1 X148.484 Y21.146 E17.1684
G1 X147.943 Y21.245 E17.1961
G1 X102.057 Y21.245 E19.5036
G1 X101.516 Y21.146 E19.5313
G1 X101.094 Y20.889 E19.5562
G1 X100.377 Y19.984 E19.6142
G1 X99.778 Y19.675 E19.6481
G1 X99.176 Y19.636 E19.6785
G1 X84.274 Y21.730 E20.4352
G1 X83.489 Y22.094 E20.4787
G1 X82.988 Y22.916 E20.5272
G1 X83.028 Y23.878 E20.5756
G1 X83.538 Y24.577 E20.6191
G1 X85.668 Y26.182 E20.7532
G1 X86.150 Y26.800 E20.7926
G1 X86.247 Y27.490 E20.8277
G1 X85.986 Y28.137 E20.8628
G1 X85.436 Y28.567 E20.8979
G1 X84.745 Y28.664 E20.9330
G1 X84.019 Y28.370 E20.9724
G1 X76.632 Y22.804 E21.4375
G1 X69.420 Y23.818 E21.8038
G1 X68.635 Y24.182 E21.8473
G1 X68.134 Y25.004 E21.8957
G1 X68.174 Y25.966 E21.9441
G1 X68.684 Y26.664 E21.9876
G1 X70.814 Y28.270 E22.1218
G1 X71.296 Y28.887 E22.1612
G1 X71.393 Y29.578 E22.1962
G1 X71.132 Y30.225 E22.2313
G1 X70.582 Y30.654 E22.2664
G1 X69.891 Y30.751 E22.3015
G1 X69.165 Y30.458 E22.3409
G1 X61.778 Y24.892 E22.8060
G1 X54.566 Y25.905 E23.1723
G1 X53.781 Y26.269 E23.2158
G1 X53.280 Y27.091 E23.2642
G1 X53.320 Y28.053 E23.3126
G1 X53.830 Y28.752 E23.3562
G1 X55.960 Y30.357 E23.4903
G1 X56.442 Y30.975 E23.5297
G1 X56.539 Y31.666 E23.5648
G1 X56.278 Y32.312 E23.5999
G1 X55.728 Y32.742 E23.6350
G1 X55.037 Y32.839 E23.6700
G1 X54.311 Y32.546 E23.7094
G1 X47.827 Y27.660 E24.1177
G1 X47.543 Y27.381 E24.1377
G1 X47.363 Y27.074 E24.1556
G1 X47.256 Y26.691 E24.1756
G1 X45.549 Y14.539 E24.7927
G1 X45.545 Y14.141 E24.8127
G1 X45.634 Y13.797 E24.8306
; feature outer perimeter
G1 X45.241 Y13.638 F6000
G92 E0.0000
G1 X45.478 Y13.220 E0.0242 F1800
G1 X50.414 Y6.670 E0.4366
G1 X51.163 Y6.084 E0.4845
G1 X52.077 Y5.956 E0.5309
G1 X52.933 Y6.301 E0.5773
G1 X53.501 Y7.028 E0.6237
G1 X53.629 Y7.942 E0.6701
G1 X53.273 Y8.824 E0.7179
G1 X51.672 Y10.949 E0.8517
G1 X51.439 Y11.583 E0.8857
G1 X51.606 Y12.271 E0.9213
G1 X52.127 Y12.751 E0.9569
G1 X52.795 Y12.855 E0.9908
G1 X59.773 Y11.874 E1.3452
G1 X65.268 Y4.582 E1.8044
G1 X66.017 Y3.996 E1.8522
G1 X66.931 Y3.868 E1.8986
G1 X67.787 Y4.214 E1.9450
G1 X68.355 Y4.941 E1.9914
G1 X68.483 Y5.855 E2.0379
G1 X68.127 Y6.737 E2.0857
G1 X66.526 Y8.861 E2.2195
G1 X66.293 Y9.495 E2.2534
G1 X66.460 Y10.184 E2.2891
G1 X66.981 Y10.663 E2.3247
G1 X67.649 Y10.767 E2.3586
G1 X74.627 Y9.786 E2.7130
G1 X80.122 Y2.495 E3.1722
G1 X80.872 Y1.909 E3.2200
G1 X81.785 Y1.780 E3.2664
G1 X82.641 Y2.126 E3.3128
G1 X83.209 Y2.853 E3.3592
G1 X83.337 Y3.767 E3.4056
G1 X82.981 Y4.649 E3.4535
G1 X81.380 Y6.774 E3.5873
G1 X81.148 Y7.408 E3.6212
G1 X81.314 Y8.096 E3.6568
G1 X81.835 Y8.575 E3.6924
G1 X82.503 Y8.680 E3.7264
G1 X102.591 Y5.856 E4.7466
G1 X103.028 Y5.701 E4.7699
G1 X103.385 Y5.373 E4.7943
G1 X103.576 Y4.951 E4.8176
G1 X103.750 Y4.193 E4.8567
G1 X104.105 Y3.456 E4.8978
G1 X104.726 Y2.961 E4.9378
G1 X105.524 Y2.779 E4.9789
G1 X144.476 Y2.779 E6.9378
G1 X145.274 Y2.961 E6.9790
G1 X145.895 Y3.456 E7.0189
G1 X146.250 Y4.193 E7.0601
G1 X146.424 Y4.951 E7.0992
G1 X146.615 Y5.373 E7.1225
G1 X146.972 Y5.701 E7.1469
G1 X147.409 Y5.856 E7.1702
G1 X167.497 Y8.680 E8.1903
G1 X168.165 Y8.575 E8.2243
G1 X168.686 Y8.096 E8.2599
G1 X168.852 Y7.408 E8.2955
G1 X168.620 Y6.774 E8.3295
G1 X167.019 Y4.649 E8.4633
G1 X166.663 Y3.767 E8.5111
G1 X166.791 Y2.853 E8.5575
G1 X167.359 Y2.126 E8.6039
G1 X168.215 Y1.780 E8.6503
G1 X169.128 Y1.909 E8.6967
G1 X169.878 Y2.495 E8.7446
G1 X175.373 Y9.786 E9.2037
G1 X182.351 Y10.767 E9.5581
G1 X183.019 Y10.663 E9.5921
G1 X183.540 Y10.184 E9.6277
G1 X183.706 Y9.495 E9.6633
G1 X183.474 Y8.861 E9.6973
G1 X181.873 Y6.737 E9.8311
G1 X181.517 Y5.855 E9.8789
G1 X181.645 Y4.941 E9.9253
G1 X182.213 Y4.214 E9.9717
G1 X183.069 Y3.868 E10.0181
G1 X183.982 Y3.996 E10.0645
G1 X184.732 Y4.582 E10.1124
G1 X190.227 Y11.874 E10.5715
G1 X197.205 Y12.855 E10.9259
G1 X197.873 Y12.751 E10.9599
G1 X198.394 Y12.271 E10.9955
G1 X198.560 Y11.583 E11.0311
G1 X198.328 Y10.949 E11.0650
G1 X196.727 Y8.824 E11.1988
G1 X196.371 Y7.942 E11.2467
G1 X196.499 Y7.028 E11.2931
G1 X197.067 Y6.301 E11.3395
G1 X197.923 Y5.956 E11.3859
G1 X198.837 Y6.084 E11.4323
G1 X199.586 Y6.670 E11.4801
G1 X204.522 Y13.219 E11.8926
G1 X204.758 Y13.638 E11.9167
G1 X204.875 Y14.090 E11.9402
G1 X204.871 Y14.570 E11.9644
G1 X203.156 Y26.776 E12.5843
G1 X203.027 Y27.240 E12.6084
G1 X202.790 Y27.642 E12.6319
G1 X202.448 Y27.979 E12.6561
G1 X195.898 Y32.914 E13.0685
G1 X195.016 Y33.271 E13.1164
G1 X194.102 Y33.142 E13.1628
G1 X193.375 Y32.574 E13.2092
G1 X193.029 Y31.719 E13.2556
G1 X193.158 Y30.805 E13.3020
G1 X193.743 Y30.055 E13.3498
G1 X195.868 Y28.454 E13.4836
G1 X196.266 Y27.909 E13.5176
G1 X196.295 Y27.201 E13.5532
G1 X195.927 Y26.597 E13.5888
G1 X195.314 Y26.313 E13.6227
G1 X188.336 Y25.332 E13.9771
G1 X181.044 Y30.827 E14.4363
G1 X180.162 Y31.183 E14.4841
G1 X179.248 Y31.055 E14.5305
G1 X178.521 Y30.487 E14.5769
G1 X178.175 Y29.631 E14.6233
G1 X178.304 Y28.717 E14.6698
G1 X178.889 Y27.968 E14.7176
G1 X181.014 Y26.367 E14.8514
G1 X181.412 Y25.821 E14.8853
G1 X181.441 Y25.114 E14.9210
G1 X181.073 Y24.509 E14.9566
G1 X180.460 Y24.225 E14.9905
G1 X173.482 Y23.244 E15.3449
G1 X166.190 Y28.739 E15.8041
G1 X165.308 Y29.095 E15.8519
G1 X164.394 Y28.967 E15.8983
G1 X163.667 Y28.399 E15.9447
G1 X163.321 Y27.543 E15.9911
G1 X163.449 Y26.630 E16.0375
G1 X164.035 Y25.880 E16.0854
G1 X166.160 Y24.279 E16.2192
G1 X166.558 Y23.733 E16.2531
G1 X166.587 Y23.026 E16.2887
G1 X166.219 Y22.422 E16.3243
G1 X165.606 Y22.137 E16.3583
G1 X150.809 Y20.058 E17.1098
G1 X150.337 Y20.089 E17.1335
G1 X149.896 Y20.316 E17.1585
G1 X149.189 Y21.209 E17.2158
G1 X148.636 Y21.545 E17.2483
G1 X147.981 Y21.665 E17.2818
G1 X102.019 Y21.665 E19.5932
G1 X101.364 Y21.545 E19.6267
G1 X100.811 Y21.209 E19.6592
G1 X100.104 Y20.316 E19.7165
G1 X99.663 Y20.089 E19.7414
G1 X99.191 Y20.058 E19.7652
G1 X84.394 Y22.137 E20.5167
G1 X83.781 Y22.422 E20.5506
G1 X83.413 Y23.026 E20.5862
G1 X83.442 Y23.733 E20.6218
G1 X83.840 Y24.279 E20.6558
G1 X85.965 Y25.880 E20.7896
G1 X86.550 Y26.630 E20.8374
